img/technology-img4.svg

<svg width="82" height="84" viewBox="0 0 82 84" fill="none" xmlns="http://www.w3.org/2000/svg">
<path d="M36.5197 19.8335H36.4906C35.6856 19.8335 35.0469 20.4869 35.0469 21.2919C35.0469 22.0969 35.7147 22.7501 36.5197 22.7501C37.3247 22.7501 37.9781 22.0967 37.9781 21.2917C37.9781 20.4867 37.3247 19.8335 36.5197 19.8335Z" fill="#36A2F4"/>
<path d="M27.7078 19.8335H21.8744C21.0694 19.8335 20.416 20.4869 20.416 21.2919C20.416 22.0969 21.0694 22.7501 21.8744 22.7501H27.7078C28.5128 22.7501 29.1662 22.0967 29.1662 21.2917C29.1662 20.4867 28.5128 19.8335 27.7078 19.8335Z" fill="#36A2F4"/>
<path d="M24.7916 78.1667C26.4016 78.1667 27.7082 76.8601 27.7082 75.2501C27.7082 73.6401 26.4016 72.3335 24.7916 72.3335C23.1816 72.3335 21.875 73.6401 21.875 75.2501C21.875 76.8601 23.1816 78.1667 24.7916 78.1667Z" fill="#36A2F4"/>
<path d="M62.4273 36.4437L57.9064 31.9228C56.133 30.1494 53.2427 30.1494 51.4693 31.9228C50.9384 32.4566 50.5652 33.0894 50.3522 33.7603C48.7538 33.2032 46.9075 33.5649 45.6359 34.8394C44.968 35.5073 44.5538 36.3328 44.3875 37.196C42.9934 36.9948 41.5438 37.4732 40.5316 38.4852C40.1233 38.8905 39.8113 39.3573 39.5895 39.856L36.9761 37.2427C35.2553 35.5248 32.254 35.5248 30.539 37.2427C29.6786 38.103 29.2031 39.2464 29.2031 40.4627C29.2031 41.6789 29.6785 42.8223 30.539 43.6827L41.6894 54.833H39.3739C35.3548 54.833 32.0823 58.1055 32.0823 62.1247C32.0823 62.9297 32.7357 63.583 33.5407 63.583H51.1864C59.951 63.583 67.0823 56.4518 67.0823 47.6843C67.0823 43.4378 65.4255 39.4449 62.4273 36.4437ZM51.1864 60.6666H35.2468C35.8505 58.9691 37.4723 57.7499 39.3739 57.7528H45.2073C45.7964 57.7528 46.3302 57.3969 46.5548 56.8516C46.7823 56.3062 46.6569 55.6791 46.2398 55.2619L32.6014 41.6235C32.2923 41.3173 32.1202 40.9032 32.1202 40.4685C32.1202 40.0339 32.2923 39.6227 32.6014 39.3135C33.2198 38.6982 34.296 38.6982 34.9143 39.3135L44.1777 48.5769C44.7464 49.1457 45.671 49.1457 46.2398 48.5769C46.5227 48.2911 46.6657 47.9178 46.6657 47.5444C46.6657 47.171 46.5257 46.7978 46.2398 46.5119L42.5939 42.866C42.2848 42.5598 42.1155 42.1457 42.1155 41.711C42.1155 41.2764 42.2846 40.8652 42.5939 40.556C43.2123 39.9377 44.2885 39.9377 44.9068 40.556L47.0943 42.7435C47.663 43.3123 48.5877 43.3123 49.1564 42.7435C49.4393 42.4577 49.5823 42.0844 49.5823 41.711C49.5823 41.3377 49.4423 40.9644 49.1564 40.6785L47.698 39.2202C47.3889 38.9139 47.2196 38.4998 47.2196 38.0652C47.2196 37.6305 47.3888 37.2193 47.698 36.9102C48.3368 36.2714 49.3722 36.2714 50.0109 36.9102L51.4693 38.3685C52.038 38.9373 52.9627 38.9373 53.5314 38.3685C53.8143 38.0827 53.9573 37.7094 53.9573 37.336C53.9573 36.9627 53.8173 36.5894 53.5314 36.3035C52.8927 35.6648 52.8927 34.6294 53.5314 33.9907C54.1702 33.3519 55.2055 33.3519 55.8443 33.9907L60.3652 38.5116C62.8152 40.9616 64.1655 44.2224 64.1655 47.6874C64.1655 54.8449 58.3468 60.6666 51.1864 60.6666Z" fill="#36A2F4"/>
<path d="M45.2078 66.5H5.83277V28.5834H43.7494V30.0418C43.7494 30.8468 44.4028 31.5001 45.2078 31.5001C46.0128 31.5001 46.6662 30.8468 46.6662 30.0418V24.2084C46.666 18.5791 42.0869 14 36.4578 14H13.1244C7.49527 14 2.91602 18.5791 2.91602 24.2084V73.7918C2.91602 79.4209 7.49527 84 13.1244 84H36.4578C42.0869 84 46.6662 79.4209 46.6662 73.7916V67.9582C46.666 67.1534 46.0128 66.5 45.2078 66.5ZM5.83277 24.2084C5.83277 20.1893 9.10527 16.9168 13.1244 16.9168H36.4578C40.4769 16.9168 43.7494 20.1893 43.7494 24.2084V25.6668H5.83277V24.2084ZM43.7494 73.7916C43.7494 77.8107 40.4769 81.0832 36.4578 81.0832H13.1244C9.10527 81.0832 5.83277 77.8107 5.83277 73.7916V69.4166H43.7494V73.7916Z" fill="#36A2F4"/>
</svg>

<svg width="82" height="84" fill="none" xmlns="http://www.w3.org/2000/svg"><path d="M36.52 19.834h-.03c-.804 0-1.443.653-1.443 1.458 0 .805.668 1.458 1.473 1.458a1.459 1.459 0 000-2.916zM27.708 19.834h-5.834a1.459 1.459 0 000 2.916h5.834a1.459 1.459 0 000-2.916zM24.792 78.167a2.918 2.918 0 000-5.834 2.918 2.918 0 000 5.834zM62.427 36.444l-4.52-4.521a4.56 4.56 0 00-6.438 0 4.559 4.559 0 00-1.117 1.837 4.546 4.546 0 00-5.964 3.436 4.571 4.571 0 00-3.856 1.29c-.409.405-.72.871-.942 1.37l-2.614-2.613c-1.72-1.718-4.722-1.718-6.437 0a4.525 4.525 0 00-1.336 3.22c0 1.216.476 2.36 1.336 3.22l11.15 11.15h-2.315c-4.02 0-7.292 3.273-7.292 7.292 0 .805.654 1.458 1.459 1.458h17.645c8.765 0 15.896-7.131 15.896-15.899 0-4.246-1.656-8.24-4.655-11.24zm-11.24 24.223h-15.94a4.38 4.38 0 014.127-2.914h5.833a1.458 1.458 0 001.033-2.491L32.6 41.623a1.627 1.627 0 010-2.31c.619-.615 1.695-.615 2.313 0l9.264 9.264a1.46 1.46 0 002.062-2.065l-3.646-3.646a1.62 1.62 0 01-.479-1.155c0-.435.17-.846.479-1.155.618-.618 1.694-.618 2.313 0l2.187 2.188a1.46 1.46 0 002.062-2.066l-1.458-1.458a1.62 1.62 0 01-.478-1.155 1.635 1.635 0 012.791-1.155l1.458 1.459a1.46 1.46 0 002.062-2.066 1.635 1.635 0 112.313-2.312l4.521 4.52c2.45 2.45 3.8 5.711 3.8 9.176 0 7.158-5.818 12.98-12.979 12.98z" fill="#36A2F4"/><path d="M45.208 66.5H5.833V28.583h37.916v1.459a1.459 1.459 0 002.917 0v-5.834C46.666 18.58 42.086 14 36.458 14H13.124C7.495 14 2.916 18.58 2.916 24.208v49.584C2.916 79.42 7.496 84 13.124 84h23.334c5.629 0 10.208-4.58 10.208-10.208v-5.834a1.46 1.46 0 00-1.458-1.458zM5.833 24.208c0-4.019 3.272-7.291 7.291-7.291h23.334c4.019 0 7.291 3.272 7.291 7.291v1.459H5.833v-1.459zm37.916 49.584c0 4.019-3.272 7.291-7.291 7.291H13.124c-4.019 0-7.291-3.272-7.291-7.291v-4.375h37.916v4.375z" fill="#36A2F4"/></svg>
